images_sukapura_svg/cmd/lc_stylenewbyexample.svg

<svg viewBox="0 0 24 24" xmlns="http://www.w3.org/2000/svg" xmlns:xlink="http://www.w3.org/1999/xlink"><filter id="a" color-interpolation-filters="sRGB" height="1.135959" width="1.153052" x="-.076526" y="-.067979"><feGaussianBlur stdDeviation=".44180839"/></filter><radialGradient id="b" cx="55.498295" cy="20.746534" gradientTransform="matrix(1 0 0 .72181261 0 7.10169)" gradientUnits="userSpaceOnUse" r="10.03901"><stop offset="0" stop-color="#ffc765"/><stop offset="1" stop-color="#ffa914"/></radialGradient><radialGradient id="c" cx="55.441967" cy="22.525862" gradientTransform="matrix(1.2258064 0 0 1.0478667 -12.519154 -1.07824)" gradientUnits="userSpaceOnUse" r="2.229184"><stop offset="0" stop-color="#ffe9c3"/><stop offset="1" stop-color="#ffe9c3" stop-opacity="0"/></radialGradient><path d="m7.8984375 2-5.8984375 16h1.6875c.1834758 0 .3391616-.05267.4667969-.158203.1356125-.10553.2275274-.227232.2753906-.365235l1.328125-3.835937h6.4843755l.472656 1.359375h1.960937l.16211-.162109-4.72461-12.837891zm1.1015625 2.09375c.071795.3003551.1467904.5800771.2265625.8398438.079772.2597666.1604623.4887687.2402344.6835937l2.2246091 6.4414065h-5.3828122l2.2246093-6.4296878c.0717949-.1948249.1467904-.421874.2265625-.6816406s.1604623-.5450428.2402344-.8535156z" fill="#69696e"/><g transform="matrix(.66847283 0 0 .66847283 -26.031719 2.090803)"><path d="m57.661017 18.305085 12.20339-12.0000003 1.118644-1.0169491c.535947-.4093238 1.138074-.6755092 2.338983-.6101695l.813559.6101695c.306849.6596707.152068 1.3286734.101695 2.0338983l-11.694915 16.7796611z" fill="#d6d6d6" stroke="#98989d" stroke-width="1.495947"/><path d="m59.389831 19.322034 12.813559-13.1186442.686441-.5338983.355932.3305085-12.122973 15.267452z" fill="#f9f9f9" filter="url(#a)"/><path d="m54.915254 19.525424c-2.355192 1.12312-2.986044 2.645733-4.067796 4.881356-1.280902 3.099136-3.365034 4.179849-6 5.898305 4.002224 2.208107 12.344829 3.382311 15.355932-1.016949 1.803572-2.317145 5.097789-5.637418 1.932203-8.237289-2.997587-2.267403-4.004437-2.954713-7.220339-1.525423z" fill="url(#b)" stroke="#f58b00" stroke-width="1.495947"/><path d="m49.395592 26.820763c-1.20494 1.428749-2.746668 2.309185-4.547936 3.483925 4.002224 2.208106 12.344366 3.383635 15.355469-1.015626-2.950168-3.198325-8.750083-1.802762-10.807533-2.468299z" fill="#0a84ff" stroke="#0040dd" stroke-width="1.495947"/><ellipse cx="55.441967" cy="22.525862" fill="url(#c)" rx="2.732548" ry="2.335888"/></g><path d="m17.289062 9-3.289062 3.253906v1.746094h-1.808594c-.107118.027004-1.745922.445988-2.191406.785156v4.214844h4v3.5c.006082.003331.134766.076172.134766.076172l1.423828-2.28711s.661844-1.374536.865234-1.730468c.178794-.31289 2.392815-3.6512 2.994141-4.558594h-.417969v-5z" fill="#fff" fill-opacity=".784314"/><path d="m16.5 10.5c-.554 0-1 .446-1 1v3.978516h-3.5c-.554 0-1 .446-1 1v.021484c0 .554.446 1 1 1h3.5v4c0 .554.446 1 1 1s1-.446 1-1v-4h4.013672c.554 0 1-.446 1-1v-.02148c0-.554-.446-1-1-1h-4.013672v-3.97852c0-.554-.446-1-1-1z" fill="#32d74b" stroke="#1ec337"/></svg>

<?xml version="1.0" encoding="UTF-8" standalone="no"?>
<svg
   xmlns:dc="http://purl.org/dc/elements/1.1/"
   xmlns:cc="http://creativecommons.org/ns#"
   xmlns:rdf="http://www.w3.org/1999/02/22-rdf-syntax-ns#"
   xmlns:svg="http://www.w3.org/2000/svg"
   xmlns="http://www.w3.org/2000/svg"
   xmlns:sodipodi="http://sodipodi.sourceforge.net/DTD/sodipodi-0.dtd"
   xmlns:inkscape="http://www.inkscape.org/namespaces/inkscape"
   viewBox="0 0 24 24"
   version="1.1"
   id="svg1021"
   sodipodi:docname="lc_stylenewbyexample.svg"
   inkscape:version="0.92.3 (2405546, 2018-03-11)"
   inkscape:export-filename="/home/rizmut/Documents/Rizmut/Github/libreoffice-style-sukapura/images_sukapura/cmd/lc_stylenewbyexample.png"
   inkscape:export-xdpi="96"
   inkscape:export-ydpi="96">
  <metadata
     id="metadata1027">
    <rdf:RDF>
      <cc:Work
         rdf:about="">
        <dc:format>image/svg+xml</dc:format>
        <dc:type
           rdf:resource="http://purl.org/dc/dcmitype/StillImage" />
        <dc:title></dc:title>
      </cc:Work>
    </rdf:RDF>
  </metadata>
  <defs
     id="defs1025">
    <linearGradient
       id="XMLID_68_"
       gradientUnits="userSpaceOnUse"
       x1="1029.9325"
       y1="304.34689"
       x2="1246.3793"
       y2="304.34689"
       gradientTransform="matrix(0.04489798,0,0,0.04489798,-33.025329,-7.4812284)">
      <stop
         offset="0"
         style="stop-color:#32C3F6"
         id="stop60" />
      <stop
         offset="1"
         style="stop-color:#2954B3"
         id="stop62" />
    </linearGradient>
    <linearGradient
       id="XMLID_69_"
       gradientUnits="userSpaceOnUse"
       x1="1204.6859"
       y1="341.08221"
       x2="980.39728"
       y2="341.08221"
       gradientTransform="matrix(0.04489798,0,0,0.04489798,-33.025329,-7.4812284)">
      <stop
         offset="0"
         style="stop-color:#32C3F6"
         id="stop66" />
      <stop
         offset="1"
         style="stop-color:#2954B3"
         id="stop68" />
    </linearGradient>
    <linearGradient
       gradientTransform="translate(27,-7)"
       id="a-7"
       gradientUnits="userSpaceOnUse"
       x1="14"
       x2="13.79661"
       y1="22"
       y2="2.1355929">
      <stop
         offset="0"
         stop-color="#0040dd"
         id="stop1784" />
      <stop
         offset="1"
         stop-color="#0a84ff"
         id="stop1786" />
    </linearGradient>
  </defs>
  <sodipodi:namedview
     pagecolor="#ffffff"
     bordercolor="#666666"
     borderopacity="1"
     objecttolerance="10"
     gridtolerance="10"
     guidetolerance="10"
     inkscape:pageopacity="0"
     inkscape:pageshadow="2"
     inkscape:window-width="1366"
     inkscape:window-height="685"
     id="namedview1023"
     showgrid="true"
     inkscape:zoom="13.906434"
     inkscape:cx="12.009232"
     inkscape:cy="7.5093657"
     inkscape:window-x="0"
     inkscape:window-y="0"
     inkscape:window-maximized="1"
     inkscape:current-layer="svg1021"
     inkscape:snap-global="false">
    <inkscape:grid
       type="xygrid"
       id="grid1599" />
  </sodipodi:namedview>
  <filter
     id="a"
     color-interpolation-filters="sRGB"
     height="1.135959"
     width="1.153052"
     x="-.076526"
     y="-.067979">
    <feGaussianBlur
       stdDeviation=".44180839"
       id="feGaussianBlur994" />
  </filter>
  <radialGradient
     id="b"
     cx="55.498295"
     cy="20.746534"
     gradientTransform="matrix(1 0 0 .72181261 0 7.10169)"
     gradientUnits="userSpaceOnUse"
     r="10.03901">
    <stop
       offset="0"
       stop-color="#ffc765"
       id="stop997" />
    <stop
       offset="1"
       stop-color="#ffa914"
       id="stop999" />
  </radialGradient>
  <radialGradient
     id="c"
     cx="55.441967"
     cy="22.525862"
     gradientTransform="matrix(1.2258064 0 0 1.0478667 -12.519154 -1.07824)"
     gradientUnits="userSpaceOnUse"
     r="2.229184">
    <stop
       offset="0"
       stop-color="#ffe9c3"
       id="stop1002" />
    <stop
       offset="1"
       stop-color="#ffe9c3"
       stop-opacity="0"
       id="stop1004" />
  </radialGradient>
  <g
     id="g1582">
    <path
       id="path1007"
       d="m7.8984375 2-5.8984375 16h1.6875c.1834758 0 .3391616-.05267.4667969-.158203.1356125-.10553.2275274-.227232.2753906-.365235l1.328125-3.835937h6.4843755l.472656 1.359375h1.960937l.16211-.162109-4.72461-12.837891zm1.1015625 2.09375c.071795.3003551.1467904.5800771.2265625.8398438.079772.2597666.1604623.4887687.2402344.6835937l2.2246091 6.4414065h-5.3828122l2.2246093-6.4296878c.0717949-.1948249.1467904-.421874.2265625-.6816406s.1604623-.5450428.2402344-.8535156z"
       fill="#69696e" />
    <g
       id="g1019"
       transform="matrix(.66847283 0 0 .66847283 -26.031719 2.090803)">
      <path
         id="path1009"
         d="m57.661017 18.305085 12.20339-12.0000003 1.118644-1.0169491c.535947-.4093238 1.138074-.6755092 2.338983-.6101695l.813559.6101695c.306849.6596707.152068 1.3286734.101695 2.0338983l-11.694915 16.7796611z"
         stroke-width="1.495947"
         stroke="#98989d"
         fill="#d6d6d6" />
      <path
         id="path1011"
         d="m59.389831 19.322034 12.813559-13.1186442.686441-.5338983.355932.3305085-12.122973 15.267452z"
         filter="url(#a)"
         fill="#f9f9f9" />
      <path
         id="path1013"
         d="m54.915254 19.525424c-2.355192 1.12312-2.986044 2.645733-4.067796 4.881356-1.280902 3.099136-3.365034 4.179849-6 5.898305 4.002224 2.208107 12.344829 3.382311 15.355932-1.016949 1.803572-2.317145 5.097789-5.637418 1.932203-8.237289-2.997587-2.267403-4.004437-2.954713-7.220339-1.525423z"
         stroke-width="1.495947"
         stroke="#f58b00"
         fill="url(#b)" />
      <path
         id="path1015"
         d="m49.395592 26.820763c-1.20494 1.428749-2.746668 2.309185-4.547936 3.483925 4.002224 2.208106 12.344366 3.383635 15.355469-1.015626-2.950168-3.198325-8.750083-1.802762-10.807533-2.468299z"
         stroke-width="1.495947"
         stroke="#0040dd"
         fill="#0a84ff" />
      <ellipse
         id="ellipse1017"
         ry="2.335888"
         rx="2.732548"
         cy="22.525862"
         cx="55.441967"
         fill="url(#c)" />
    </g>
  </g>
  <g
     transform="matrix(0.04489798,0,0,0.04489798,-33.025329,-7.4812284)"
     id="XMLID_3_">
    <linearGradient
       id="linearGradient946"
       gradientUnits="userSpaceOnUse"
       x1="1029.9325"
       y1="304.34689"
       x2="1246.3793"
       y2="304.34689">
      <stop
         offset="0"
         style="stop-color:#32C3F6"
         id="stop942" />
      <stop
         offset="1"
         style="stop-color:#2954B3"
         id="stop944" />
    </linearGradient>
    <linearGradient
       id="linearGradient953"
       gradientUnits="userSpaceOnUse"
       x1="1204.6859"
       y1="341.08221"
       x2="980.39728"
       y2="341.08221">
      <stop
         offset="0"
         style="stop-color:#32C3F6"
         id="stop949" />
      <stop
         offset="1"
         style="stop-color:#2954B3"
         id="stop951" />
    </linearGradient>
  </g>
  <path
     style="opacity:1;fill:#ffffff;fill-opacity:0.78431373;stroke:none;stroke-width:2;stroke-linecap:round;stroke-linejoin:round;stroke-miterlimit:4;stroke-dasharray:none;stroke-opacity:1"
     d="M 17.289062 9 L 14 12.253906 L 14 14 L 12.191406 14 C 12.084288 14.027004 10.445484 14.445988 10 14.785156 L 10 19 L 14 19 L 14 22.5 C 14.006082 22.503331 14.134766 22.576172 14.134766 22.576172 L 15.558594 20.289062 C 15.558594 20.289062 16.220438 18.914526 16.423828 18.558594 C 16.602622 18.245704 18.816643 14.907394 19.417969 14 L 19 14 L 19 9 L 17.289062 9 z "
     id="rect2433" />
  <path
     inkscape:connector-curvature="0"
     style="fill:#32d74b;stroke:#1ec337"
     d="m 16.5,10.5 c -0.554,0 -1,0.446 -1,1 v 3.978516 H 12 c -0.554,0 -1,0.446 -1,1 V 16.5 c 0,0.554 0.446,1 1,1 h 3.5 v 4 c 0,0.554 0.446,1 1,1 0.554,0 1,-0.446 1,-1 v -4 h 4.013672 c 0.554,0 1,-0.446 1,-1 v -0.02148 c 0,-0.554 -0.446,-1 -1,-1 H 17.5 V 11.5 c 0,-0.554 -0.446,-1 -1,-1 z"
     id="path4" />
</svg>
